symbols/web/flight_land/materialsymbolsrounded/flight_land_wght200gradN25_20px.svg

<svg xmlns="http://www.w3.org/2000/svg" height="20" width="20"><path d="M3.458 16.979q-.166 0-.302-.135-.135-.136-.135-.282 0-.166.135-.302.136-.135.302-.135h13.104q.167 0 .303.135.135.136.135.282 0 .166-.135.302-.136.135-.303.135Zm12.25-4.187L3.521 9.438q-.229-.063-.365-.261-.135-.198-.135-.406V6.208q0-.208.156-.343.156-.136.385-.053.084.021.136.084.052.062.094.125l.5 1.541 4.458 1.25v-5.77q0-.313.208-.479.209-.167.521-.084.104.042.198.136.094.093.135.197l2.167 6.896 4.292 1.209q.312.062.521.333.208.271.208.604 0 .521-.396.802-.396.282-.896.136Z"/></svg>

<svg xmlns="http://www.w3.org/2000/svg" height="20" width="20"><path d="M3.458 16.979Q3.292 16.979 3.156 16.844Q3.021 16.708 3.021 16.562Q3.021 16.396 3.156 16.26Q3.292 16.125 3.458 16.125H16.562Q16.729 16.125 16.865 16.26Q17 16.396 17 16.542Q17 16.708 16.865 16.844Q16.729 16.979 16.562 16.979ZM15.708 12.792 3.521 9.438Q3.292 9.375 3.156 9.177Q3.021 8.979 3.021 8.771V6.208Q3.021 6 3.177 5.865Q3.333 5.729 3.562 5.812Q3.646 5.833 3.698 5.896Q3.75 5.958 3.792 6.021L4.292 7.562L8.75 8.812V3.042Q8.75 2.729 8.958 2.563Q9.167 2.396 9.479 2.479Q9.583 2.521 9.677 2.615Q9.771 2.708 9.812 2.812L11.979 9.708L16.271 10.917Q16.583 10.979 16.792 11.25Q17 11.521 17 11.854Q17 12.375 16.604 12.656Q16.208 12.938 15.708 12.792Z"/></svg>
